moonpay.svg

<svg width="348" height="105" viewBox="0 0 348 105" fill="none" xmlns="http://www.w3.org/2000/svg">
<g clip-path="url(#clip0)">
<path d="M114.679 81.1919H121.924V53.9993L133.083 81.1919H138.926L150.027 53.9993V81.1919H157.272V40.1686H148.391L136.005 70.4672L123.619 40.1686H114.679V81.1919Z" fill="white"/>
<path d="M177.094 81.6607C186.033 81.6607 192.46 75.2142 192.46 66.4235C192.46 57.6328 186.033 51.1863 177.094 51.1863C168.097 51.1863 161.67 57.6328 161.67 66.4235C161.67 75.2142 168.097 81.6607 177.094 81.6607ZM177.094 75.4486C172.186 75.4486 168.915 71.7565 168.915 66.4235C168.915 61.0905 172.186 57.3984 177.094 57.3984C181.944 57.3984 185.215 61.0905 185.215 66.4235C185.215 71.7565 181.944 75.4486 177.094 75.4486Z" fill="white"/>
<path d="M209.988 81.6607C218.927 81.6607 225.354 75.2142 225.354 66.4235C225.354 57.6328 218.927 51.1863 209.988 51.1863C200.991 51.1863 194.564 57.6328 194.564 66.4235C194.564 75.2142 200.991 81.6607 209.988 81.6607ZM209.988 75.4486C205.08 75.4486 201.809 71.7565 201.809 66.4235C201.809 61.0905 205.08 57.3984 209.988 57.3984C214.838 57.3984 218.109 61.0905 218.109 66.4235C218.109 71.7565 214.838 75.4486 209.988 75.4486Z" fill="white"/>
<path d="M229.035 81.1919H236.222V65.0756C236.222 60.7389 239.026 57.5742 243.057 57.5742C246.738 57.5742 249.192 60.3872 249.192 64.431V81.1919H256.378V62.9072C256.378 55.9919 252.055 51.1863 245.394 51.1863C241.188 51.1863 237.858 53.003 236.222 56.2263V51.6551H229.035V81.1919Z" fill="white"/>
<path d="M262.345 81.1919H270.116V65.6031H278.763C287.293 65.6031 292.376 60.3286 292.376 52.8858C292.376 45.443 287.293 40.1686 278.763 40.1686H262.345V81.1919ZM270.116 59.0979V46.6737H278.412C282.969 46.6737 284.839 49.604 284.839 52.8858C284.839 56.1677 282.969 59.0979 278.412 59.0979H270.116Z" fill="white"/>
<path d="M306.173 51.1863C298.519 51.1863 293.553 55.7575 293.202 61.6179H299.629C299.746 58.9807 302.025 56.5779 305.822 56.5779C309.62 56.5779 311.84 58.6291 311.84 61.5007C311.84 62.6728 311.139 63.4933 309.678 63.4933H304.245C297.643 63.4933 293.202 67.0682 293.202 72.8114C293.202 77.91 297.175 81.6607 303.018 81.6607C307.225 81.6607 310.613 79.7268 311.84 76.7965V81.1919H318.91V62.204C318.91 55.523 313.651 51.1863 306.173 51.1863ZM304.712 76.3277C302.025 76.3277 300.155 74.804 300.155 72.5184C300.155 69.9398 302.2 68.2403 305.238 68.2403H311.84V68.7091C311.84 73.1631 309.211 76.3277 304.712 76.3277Z" fill="white"/>
<path d="M348 51.6552H340.638L333.861 71.9325L327.025 51.6552H319.722L330.472 81.192L326.324 93.1473H333.16L337.717 79.7854L348 51.6552Z" fill="white"/>
<path d="M85.2037 62.2674C85.2037 85.868 66.1302 105 42.6019 105C19.0735 105 0 85.868 0 62.2674C0 38.6669 19.0735 19.5349 42.6019 19.5349C66.1302 19.5349 85.2037 38.6669 85.2037 62.2674Z" fill="white"/>
<path d="M110.765 15.2616C110.765 23.6904 103.953 30.5233 95.55 30.5233C87.147 30.5233 80.335 23.6904 80.335 15.2616C80.335 6.83286 87.147 0 95.55 0C103.953 0 110.765 6.83286 110.765 15.2616Z" fill="white"/>
</g>
<defs>
<clipPath id="clip0">
<rect width="348" height="105" fill="white"/>
</clipPath>
</defs>
</svg>

<svg xmlns="http://www.w3.org/2000/svg" xmlns:xlink="http://www.w3.org/1999/xlink" width="348" height="105" fill="none"><g clip-path="url(#A)" fill="#000"><path d="M114.679 81.192h7.245V53.999l11.159 27.193h5.843l11.101-27.193v27.193h7.245V40.169h-8.881l-12.386 30.299-12.386-30.299h-8.94v41.023z"/><use xlink:href="#B"/><path d="M209.988 81.661c8.939 0 15.366-6.446 15.366-15.237s-6.427-15.237-15.366-15.237c-8.997 0-15.424 6.447-15.424 15.237s6.427 15.237 15.424 15.237zm0-6.212c-4.908 0-8.179-3.692-8.179-9.025s3.271-9.025 8.179-9.025c4.85 0 8.121 3.692 8.121 9.025s-3.271 9.025-8.121 9.025zm19.047 5.743h7.187V65.076c0-4.337 2.804-7.501 6.835-7.501 3.681 0 6.135 2.813 6.135 6.857v16.761h7.186V62.907c0-6.915-4.323-11.721-10.984-11.721-4.206 0-7.536 1.817-9.172 5.04v-4.571h-7.187v29.537zm33.31 0h7.771V65.603h8.647c8.53 0 13.613-5.274 13.613-12.717s-5.083-12.717-13.613-12.717h-16.418v41.023zm7.771-22.094V46.674h8.296c4.557 0 6.427 2.93 6.427 6.212s-1.87 6.212-6.427 6.212h-8.296zm36.057-7.912c-7.654 0-12.62 4.571-12.971 10.432h6.427c.117-2.637 2.396-5.04 6.193-5.04s6.018 2.051 6.018 4.923c0 1.172-.701 1.993-2.162 1.993h-5.433c-6.602 0-11.043 3.575-11.043 9.318 0 5.099 3.973 8.849 9.816 8.849 4.207 0 7.595-1.934 8.822-4.864v4.395h7.07V62.204c0-6.681-5.259-11.018-12.737-11.018zm-1.461 25.141c-2.687 0-4.557-1.524-4.557-3.809 0-2.579 2.045-4.278 5.083-4.278h6.602v.469c0 4.454-2.629 7.619-7.128 7.619zM348 51.655h-7.362l-6.777 20.277-6.836-20.277h-7.303l10.75 29.537-4.148 11.955h6.836l4.557-13.362L348 51.655zM85.204 62.267C85.204 85.868 66.13 105 42.602 105S0 85.868 0 62.267s19.074-42.732 42.602-42.732 42.602 19.132 42.602 42.733zm25.561-47.005c0 8.429-6.812 15.262-15.215 15.262S80.335 23.69 80.335 15.262 87.147 0 95.55 0s15.215 6.833 15.215 15.262z"/></g><defs><clipPath id="A"><path fill="#000" d="M0 0h348v105H0z"/></clipPath><path id="B" d="M177.094 81.661c8.939 0 15.366-6.446 15.366-15.237s-6.427-15.237-15.366-15.237c-8.997 0-15.424 6.447-15.424 15.237s6.427 15.237 15.424 15.237zm0-6.212c-4.908 0-8.179-3.692-8.179-9.025s3.271-9.025 8.179-9.025c4.85 0 8.121 3.692 8.121 9.025s-3.271 9.025-8.121 9.025z"/></defs></svg>
